X: 118
T: Fenhong lian
%%abc-version 2.0
%%abcx-abcm2ps-target-version 5.9.1 (29 Sep 2008)
%%abc-creator hum2abc beta
%%abcx-conversion-date 2013/10/02 07:52:29
%%abc-edited-by Helmut Schaffrath
%%humdrum-veritas 4182113630
%%humdrum-veritas-data 2603007368
%%continueall 1
%%barnumbers 0
L: 1/8
M: 2/4
K: G
G G/ A/ d B [I:setbarnb 1]| 
A3d | 
B B/ A/ G E | 
D4 | 
B B/ A/G2 | 
B B/ A/G2 | 
A d G E | 
D4 | 
d d/ g/ B A | 
A d B d | 
A d B B/ A/ | 
G4 | 
B B/ A/ B d | 
B B/ A/G2 | 
A d G E | 
D4 |]  



